!!!LAR: Arban, Jean-Baptiste
!!!OTL: Who Shall Be Fairest?
!!!OPR: The Art of Phrasing: 150 Classic and Popular Melodies
!!!ONM: No. 012
!!!OMD: Andante
**kern	**dynam
*ITromp	*
*ITrd1c2	*
*clefG2	*
*B-:	*
*k[b-e-]	*
*M4/4	*
*met(c)	*
=1	=1
4b-	p
8.b-L	.
16b-J	.
(4a	.
4cc)	.
=2	=2
4g	.
8.gL	.
16gJ	.
(4g	.
4f),	.
=3	=3
(4dd	.
8.ee-L	.
16ddJ)	.
(8ddL	<
8cc)	(
8g	(
8ccJ	[
=4	=4
(8b-L	>
8aJ)	)
(8.gL	)
16aJ)	]
4b-	.
4r	.
=5	=5
4b-	.
8.b-L	.
16b-J	.
4a	.
8.ccL	.
16ccJ	.
=6	=6
4g	.
(16gQL	.
16b-QJ	.
(8.aL)	.
16gJ)	.
(4g	.
4f,)	.
=7	=7
(4dd	mf
8.aL)	.
16aJ	.
(4cc	.
8b-L)	.
8aJ	.
=8	=8
(4g	.
8.ddL	.
16ccJ)	.
4f	.
4r	.
=9	=9
4a-	p
8.a-L	.
16a-J	.
(4a-	.
4g)	.
=10	=10
(4f	.
8.gL	.
16dJ)	.
(4f	.
4e-),	.
=11	=11
(4cc	.
8.ddL	<
16ee-J)	(
(8ee-L	(
8dd)	(
8cc	(
8b-J	[
=12	=12
!!LO:TX:i:b:t=rall.
4a	.
(ccq	.
(8.b-L)	.
16aJ)	.
4a;	.
(8b-QL	.
8aQJ	.
(8gL);	.
8fJ)	.
=13	=13
!!LO:TX:i:b:t=a tempo
4b-	ff
8.b-L	.
16b-J	.
(4a	.
4cc)	.
=14	=14
4g	.
8.gL	.
16gJ	.
(4g	.
4f),	.
=15	=15
(4dd	.
8.ee-L	.
16ddJ)	.
(8ddL	.
8cc)	.
8.g	.
16ccJ	.
=16	=16
(8bL	<
8cc)	(
8dd	(
8ee-J	(
2ff	[
=17	=17
4een	>
4ee-	)
4dd	]
8r	.
8dd	ff
=18	=18
(8ddL.	>
8cc)	)
8g	)
8ccJ	)
8ccL	)
8b-	)
(8.a	]
16g)J	.
=19	=19
(8eL	p
8f)J	.
(8.ddL;	.
16cc)J	.
4b-	.
4r	.
==|!	==|!
*-	*-
!!!OCL: Edwin Franko Goldman
!!!OCL: Walter M. Smith
!!!OCL: Claude Gordon
!!!YOR: Arban's Complete Conservatory Method for Trumpet/Cornet
!!!PPR: Carl Fischer
!!!PPP: New York, NY
!!!PDT: 1893///
!!!reprint: Carl Fischer, 1982: ISBN 0-8258-0385-3
!!!EFL: 12/150
!!!ENC: Hubert Léveillé Gauvin
!!!END: 2021/08/29/
